X:212
T:White Mountain (reel), The
T:Silver Spear 
B:CRE1.139 (Sliabh Bana)
F:file ID: cre.1/212white_m
N:Willie Clancy's name for/version of "Silver Spear".
M:C
L:1/8
Q:180
R:reel
K:D
AG|FAA2 BAFA|dfed BdAG|FAA2 BAFA|dfed (3Bcd AG|
FAA2 BAFA|dfed BABd|g3e (3fgf fe|dfed B3A/G/||
%B
FA (3ABA BA (3FGA|dfed BdAF|FA (3ABA BA (3FGA|dfed B2AG|
FAA2 BAFA|dfed BABd|g3e f3e|dfed B2A>||
%C
|:g/|faa2 bgaf|defd Bddg|faa2 bgaf|(3gfe fd B2A>g|
faa2 bgaf|(3gfe fd BABd|g3e (3fgf fe|dfed B2A:|

%%%

